ui/StatusQ/src/assets/img/icons/arrow-down.svg

<svg fill="none" height="24" viewBox="0 0 24 24" width="24" xmlns="http://www.w3.org/2000/svg"><path d="m6.53033 13.4697c-.29289-.2929-.76777-.2929-1.06066 0s-.29289.7677 0 1.0606l6.00003 6c.2929.2929.7677.2929 1.0606 0l6-6c.2929-.2929.2929-.7677 0-1.0606s-.7677-.2929-1.0606 0l-3.8661 3.8661c-.315.315-.8536.0919-.8536-.3536v-12.9822c0-.41421-.3358-.75-.75-.75s-.75.33579-.75.75v12.9822c0 .4455-.5386.6686-.8536.3536z" fill="#000"/></svg>

<svg width="24" height="24" viewBox="0 0 24 24" fill="none" xmlns="http://www.w3.org/2000/svg">
<path d="M6.53033 13.4697C6.23744 13.1768 5.76256 13.1768 5.46967 13.4697C5.17678 13.7626 5.17678 14.2374 5.46967 14.5303L11.4697 20.5303C11.7626 20.8232 12.2374 20.8232 12.5303 20.5303L18.5303 14.5303C18.8232 14.2374 18.8232 13.7626 18.5303 13.4697C18.2374 13.1768 17.7626 13.1768 17.4697 13.4697L13.6036 17.3358C13.2886 17.6508 12.75 17.4277 12.75 16.9822L12.75 4C12.75 3.58579 12.4142 3.25 12 3.25C11.5858 3.25 11.25 3.58579 11.25 4L11.25 16.9822C11.25 17.4277 10.7114 17.6508 10.3964 17.3358L6.53033 13.4697Z" fill="black"/>
</svg>
